src/icons/nav-cv.svg

<svg viewBox="0 0 32 32" xmlns="http://www.w3.org/2000/svg">
<rect width="32" height="32" rx="16" fill="#AE82FC"/>
<g>
<path d="M14.8845 22.126L15.0862 22.2418C15.2917 22.3571 15.5235 22.4158 15.7584 22.4121C15.9888 22.4134 16.2157 22.3548 16.4172 22.2418L16.6189 22.126C19.8222 20.2962 21.8052 16.8608 21.8088 13.135V13.0396C21.8131 12.5486 21.5563 12.0932 21.1365 11.8476L20.9757 11.7559L15.7295 18.3623C15.6203 18.4998 15.4215 18.5254 15.2811 18.4201L12.283 16.1715C12.1398 16.0641 12.1108 15.8609 12.2182 15.7177L12.3849 15.4954C12.4923 15.3521 12.6955 15.3231 12.8388 15.4305L15.116 17.1385C15.2565 17.2438 15.4552 17.2182 15.5644 17.0807L20.1616 11.2917L16.4307 9.16396C16.0147 8.92061 15.5022 8.92061 15.0862 9.16396L10.3803 11.8476C9.96057 12.0932 9.70372 12.5486 9.70806 13.0396V13.135C9.70887 16.858 11.6863 20.2927 14.8845 22.126Z" fill="#F3F3FA"/>
</g>
</svg>

<svg viewBox="0 0 32 32" xmlns="http://www.w3.org/2000/svg"><rect width="32" height="32" rx="16" fill="#AE82FC"/><path d="m14.884 22.126.202.116c.206.115.438.174.672.17.23.001.458-.057.66-.17l.2-.116c3.204-1.83 5.187-5.265 5.19-8.991v-.095a1.366 1.366 0 0 0-.671-1.192l-.161-.092-5.246 6.606a.324.324 0 0 1-.449.058l-2.998-2.248a.324.324 0 0 1-.065-.454l.167-.223a.324.324 0 0 1 .454-.064l2.277 1.708c.14.105.34.08.448-.058l4.598-5.79-3.731-2.127a1.33 1.33 0 0 0-1.345 0l-4.706 2.684c-.42.245-.676.7-.672 1.192v.095c0 3.723 1.978 7.158 5.176 8.991Z" fill="#F3F3FA"/></svg>
